X: 163
T: The Dunmore Lasses
R: reel
M: 4/4
L: 1/8
K:Emin
"Em"~E3F ~G3A|Be~e2 Be~e2|~E3F "G"G2BG|"D"~A2BA GEFD|
"Em"~E3F ~G3A|Beed e2ef|"C"gefd "Em"edBG|1"D"AcBA GEFD:|2"D"AcBA "Em"GEE2||
|: "Em"gfeg "D"fedc|"Em"Be~e2 Be~e2|gfeg "D"fedB|AcBA "Em"GEE2|
"Em"gfeg "D"fedc|"Em"Beed e2ef|"C"gefd "Em"edBG|1"D"AcBA "Em"GEE2:|2"D"AcBA GEFD||


